src/icons/svg/clear.svg

<?xml version="1.0" encoding="UTF-8"?>
<svg width="40px" height="41px" viewBox="0 0 40 41" version="1.1" xmlns="http://www.w3.org/2000/svg"
>
    <path d="M39.9793912,39.1019711 L37.2439048,23.3290535 L38.1677767,23.3290535 C38.9110031,23.3290535 39.5097134,22.7303433 39.5097134,21.9871168 L39.5097134,12.0774303 C39.5097134,11.3342039 38.9110031,10.7354936 38.1677767,10.7354936 L25.4709909,10.7354936 L25.4709909,1.3419367 C25.4709909,0.598710222 24.8722807,0 24.1290542,0 L15.8709822,0 C15.1277557,0 14.5290455,0.598710222 14.5290455,1.3419367 L14.5290455,10.7354936 L1.83225973,10.7354936 C1.08903325,10.7354936 0.490323027,11.3342039 0.490323027,12.0774303 L0.490323027,21.9871168 C0.490323027,22.7303433 1.08903325,23.3290535 1.83225973,23.3290535 L2.75613154,23.3290535 L0.0206451801,39.1019711 C0.00516129502,39.1793905 0,39.2568099 0,39.329068 C0,40.0722945 0.598710222,40.6710047 1.3419367,40.6710047 L38.6580997,40.6710047 C38.7355191,40.6710047 38.8129385,40.6658434 38.8851967,40.6503596 C39.6181006,40.5264885 40.1084236,39.8297136 39.9793912,39.1019711 Z M4.10322954,14.3484001 L18.141952,14.3484001 L18.141952,3.61290651 L21.8580844,3.61290651 L21.8580844,14.3484001 L35.8968068,14.3484001 L35.8968068,19.716147 L4.10322954,19.716147 L4.10322954,14.3484001 Z M28.2580902,37.0580982 L28.2580902,29.006478 C28.2580902,28.779381 28.0722836,28.5935744 27.8451866,28.5935744 L25.367765,28.5935744 C25.140668,28.5935744 24.9548614,28.779381 24.9548614,29.006478 L24.9548614,37.0580982 L15.045175,37.0580982 L15.045175,29.006478 C15.045175,28.779381 14.8593684,28.5935744 14.6322714,28.5935744 L12.1548498,28.5935744 C11.9277528,28.5935744 11.7419462,28.779381 11.7419462,29.006478 L11.7419462,37.0580982 L4.041294,37.0580982 L6.36903805,23.6387312 L33.625837,23.6387312 L35.9535811,37.0580982 L28.2580902,37.0580982 Z"
          id="形状"></path>
</svg>

<svg width="40" height="41" xmlns="http://www.w3.org/2000/svg"><path d="M39.98 39.102l-2.736-15.773h.924a1.34 1.34 0 0 0 1.342-1.342v-9.91a1.34 1.34 0 0 0-1.342-1.342H25.47V1.342A1.34 1.34 0 0 0 24.129 0h-8.258a1.34 1.34 0 0 0-1.342 1.342v9.393H1.832A1.34 1.34 0 0 0 .49 12.077v9.91a1.34 1.34 0 0 0 1.342 1.342h.924L.021 39.102a1.34 1.34 0 0 0 1.321 1.569h37.316a1.336 1.336 0 0 0 1.321-1.569zM4.102 14.348h14.039V3.613h3.716v10.735h14.039v5.368H4.103v-5.368zm24.155 22.71v-8.052a.414.414 0 0 0-.413-.412h-2.477a.414.414 0 0 0-.413.412v8.052h-9.91v-8.052a.414.414 0 0 0-.413-.412h-2.477a.414.414 0 0 0-.413.412v8.052h-7.7l2.327-13.42h27.257l2.328 13.42h-7.696z"/></svg>
